svg/u1f634.svg

<svg viewBox="0 0 128 128" xmlns="http://www.w3.org/2000/svg">
  <g id="gold">
    <radialGradient id="face_1_" cx="63.6" cy="2880.8999" gradientTransform="matrix(1 0 0 1 0 -2818)" gradientUnits="userSpaceOnUse" r="56.9597">
      <stop offset="0.5" stop-color="#FDE030"/>
      <stop offset="0.92" stop-color="#F7C02B"/>
      <stop offset="1" stop-color="#F4A223"/>
    </radialGradient>
    <path id="face" d="M63.6,118.8c-27.9,0-58-17.5-58-55.9S35.7,7,63.6,7c15.5,0,29.8,5.1,40.4,14.4 c11.5,10.2,17.6,24.6,17.6,41.5s-6.1,31.2-17.6,41.4C93.4,113.6,79,118.8,63.6,118.8z" fill="url(#face_1_)"/>
  </g>
  <g id="facial_expressions">
    <path d="M111.49,29.67c5.33,8.6,8.11,18.84,8.11,30.23c0,16.9-6.1,31.2-17.6,41.4 c-10.6,9.3-25,14.5-40.4,14.5c-18.06,0-37-7.35-48.18-22.94c10.76,17.66,31,25.94,50.18,25.94c15.4,0,29.8-5.2,40.4-14.5 c11.5-10.2,17.6-24.5,17.6-41.4C121.6,50.16,118.13,38.84,111.49,29.67z" fill="#EB8F00"/>
    <g id="sleeping-face">
      <g id="eyes">
        <path d="M48.6,54.7l-0.2,0.2l-0.5,0.5c-0.2,0.2-0.4,0.3-0.7,0.6c-0.32,0.26-0.65,0.49-1,0.7 c-0.4,0.2-0.8,0.5-1.2,0.7s-0.9,0.4-1.4,0.6c-0.49,0.18-0.99,0.31-1.5,0.4c-0.53,0.09-1.06,0.12-1.6,0.1h-0.9 c-0.24,0.02-0.48-0.02-0.7-0.1c-0.51-0.09-1.01-0.22-1.5-0.4c-0.48-0.16-0.95-0.36-1.4-0.6c-0.4-0.2-0.8-0.5-1.2-0.7 c-0.7-0.5-1.3-1-1.7-1.3l-0.6-0.6l-0.2-0.2c-1.29-1.16-3.22-1.24-4.6-0.2c-0.97,0.76-1.3,2.08-0.8,3.2l0.2,0.3 c0.11,0.28,0.25,0.54,0.4,0.8c0.61,1.03,1.35,1.97,2.2,2.8c0.59,0.58,1.23,1.12,1.9,1.6c0.79,0.55,1.62,1.02,2.5,1.4 c0.96,0.44,1.97,0.77,3,1l1.7,0.3c0.3,0,0.7,0.1,0.8,0.1h0.8c1.11,0,2.21-0.1,3.3-0.3c1.04-0.21,2.04-0.55,3-1 c0.88-0.38,1.71-0.85,2.5-1.4c0.7-0.45,1.34-0.99,1.9-1.6c0.49-0.45,0.93-0.95,1.3-1.5c0.2-0.2,0.3-0.5,0.5-0.7s0.3-0.4,0.4-0.6 c0.17-0.24,0.31-0.51,0.4-0.8l0.1-0.2c0.62-1.4-0.02-3.05-1.42-3.67c-0.12-0.05-0.25-0.1-0.38-0.13 C50.83,53.49,49.47,53.77,48.6,54.7z" fill="#422B0D"/>
        <path d="M93.5,54.7l-0.2,0.2l-0.5,0.5c-0.2,0.2-0.4,0.3-0.7,0.6c-0.32,0.26-0.65,0.49-1,0.7 c-0.4,0.2-0.8,0.5-1.2,0.7S89,57.8,88.5,58c-0.49,0.18-0.99,0.31-1.5,0.4c-0.53,0.09-1.06,0.12-1.6,0.1h-0.9 c-0.24,0.01-0.47-0.03-0.7-0.1c-0.51-0.09-1.01-0.22-1.5-0.4c-0.48-0.16-0.95-0.36-1.4-0.6c-0.4-0.2-0.8-0.5-1.2-0.7 c-0.7-0.5-1.3-1-1.7-1.3l-0.6-0.6l-0.2-0.2c-1.29-1.16-3.22-1.24-4.6-0.2c-0.97,0.76-1.3,2.08-0.8,3.2l0.2,0.3 c0.11,0.28,0.25,0.54,0.4,0.8c0.61,1.03,1.35,1.97,2.2,2.8c0.59,0.58,1.23,1.12,1.9,1.6c0.79,0.55,1.62,1.02,2.5,1.4 c0.96,0.44,1.97,0.77,3,1l1.7,0.3c0.3,0,0.7,0.1,0.8,0.1h0.8c1.11,0,2.21-0.1,3.3-0.3c1.04-0.21,2.04-0.55,3-1 c0.88-0.38,1.71-0.85,2.5-1.4c0.72-0.43,1.36-0.97,1.9-1.6c0.49-0.45,0.93-0.95,1.3-1.5c0.2-0.2,0.3-0.5,0.5-0.7s0.3-0.4,0.4-0.6 c0.17-0.24,0.31-0.51,0.4-0.8l0.1-0.2c0.62-1.4-0.02-3.05-1.42-3.67c-0.12-0.05-0.25-0.1-0.38-0.13 C95.73,53.49,94.37,53.77,93.5,54.7z" fill="#422B0D"/>
      </g>
      <g id="prop">
        <path d="M77.2,21.6c-0.34-0.19-0.71-0.33-1.1-0.4c-0.4-0.2-0.9-0.3-1.3-0.5l-2.1-0.6 c-0.8-0.3-1.7-0.5-2.5-0.8c-1.6-0.5-3.6-1.8-4.6,0.5c-0.27,0.49-0.41,1.04-0.4,1.6c0,0.8,0.6,1.2,1.3,1.5 c0.74,0.33,1.51,0.59,2.3,0.8c0.25,0.13,0.52,0.19,0.8,0.2c0.2,0,0.4,0.1,0.4,0.3s-0.2,0.2-0.3,0.3s-0.4,0.3-0.6,0.4l-0.3,0.2 c-0.54,0.4-1.11,0.77-1.7,1.1c-0.4,0.3-0.9,0.6-1.3,0.9c-0.22,0.1-0.42,0.23-0.6,0.4c-0.59,0.4-1.16,0.84-1.7,1.3L63.3,29 c-0.54,0.43-0.93,1.03-1.1,1.7c-0.1,0.9,0.6,1.3,1.4,1.7l0.9,0.3l0,0c1.05,0.39,2.12,0.73,3.2,1c0.8,0.3,1.7,0.5,2.5,0.8 c1.6,0.5,3.6,1.8,4.6-0.5c0.27-0.49,0.41-1.04,0.4-1.6c-0.1-0.71-0.61-1.3-1.3-1.5c-0.74-0.33-1.51-0.59-2.3-0.8 c-0.2,0-0.3-0.1-0.5-0.2s-0.3-0.1-0.4-0.1c-0.2-0.2,0.2-0.4,0.3-0.5c0.42-0.23,0.82-0.5,1.2-0.8c0.42-0.27,0.82-0.57,1.2-0.9 c0.2-0.1,0.4-0.3,0.6-0.4c0.4-0.3,0.9-0.6,1.3-0.9c1.1-0.9,3.6-2,2.8-3.7C77.89,22.2,77.58,21.85,77.2,21.6z" fill="#5F7AFF"/>
        <path d="M97.1,12.1c-0.38-0.18-0.79-0.31-1.2-0.4c-0.5-0.1-1-0.3-1.5-0.4c-0.8-0.2-1.6-0.3-2.3-0.5 c-0.9-0.2-1.9-0.5-2.8-0.7c-1.8-0.4-4.1-1.6-5,1c-0.24,0.57-0.35,1.18-0.3,1.8c0.1,0.9,0.8,1.3,1.6,1.5 c0.82,0.28,1.65,0.51,2.5,0.7c0.3,0.1,0.6,0.1,0.9,0.2s0.4,0.1,0.4,0.3s-0.2,0.3-0.3,0.4s-0.4,0.3-0.6,0.5s-0.2,0.1-0.3,0.2 c-0.6,0.5-1.2,0.9-1.8,1.4L85,19.2c-0.2,0.1-0.4,0.3-0.6,0.4c-0.6,0.5-1.2,1-1.7,1.5c-0.1,0.1-0.2,0.1-0.2,0.2 c-0.61,0.5-1,1.22-1.1,2c0,1,0.8,1.4,1.7,1.8l1,0.3l0,0c1.15,0.36,2.32,0.66,3.5,0.9c0.9,0.2,1.9,0.5,2.8,0.7 c1.8,0.4,4.1,1.6,5-1c0.24-0.57,0.35-1.18,0.3-1.8c-0.1-0.9-0.8-1.3-1.6-1.5c-0.85-0.29-1.72-0.53-2.6-0.7 c-0.2,0-0.4-0.1-0.6-0.1s-0.4,0-0.5-0.1s0.2-0.4,0.3-0.5c0.4-0.3,0.8-0.6,1.3-1l1.3-1c0.22-0.19,0.45-0.36,0.7-0.5 c0.49-0.34,0.95-0.71,1.4-1.1c1.1-1.1,3.8-2.4,2.7-4.3C97.97,12.84,97.6,12.37,97.1,12.1z" fill="#5F7AFF"/>
        <path d="M123.6,9c-0.38-0.64-0.93-1.17-1.6-1.5c-0.52-0.21-1.05-0.38-1.6-0.5c-0.65-0.21-1.32-0.38-2-0.5 c-1-0.3-2.1-0.5-3.1-0.7c-1.2-0.3-2.5-0.7-3.7-1c-2.4-0.6-5.4-2.2-6.7,1.3c-0.33,0.76-0.46,1.58-0.4,2.4 c0.18,1.06,1.04,1.87,2.1,2c1.12,0.36,2.25,0.66,3.4,0.9c0.4,0.1,0.8,0.2,1.1,0.3s0.6,0.1,0.6,0.4c-0.04,0.22-0.19,0.41-0.4,0.5 c-0.3,0.2-0.5,0.4-0.8,0.6c-0.11,0.12-0.25,0.23-0.4,0.3c-0.8,0.6-1.6,1.2-2.3,1.8l-1.8,1.5c-0.25,0.22-0.52,0.42-0.8,0.6 c-0.8,0.6-1.5,1.3-2.3,2l-0.3,0.3c-0.8,0.64-1.31,1.58-1.4,2.6c0,1.3,1.1,1.9,2.3,2.4c0.42,0.18,0.85,0.31,1.3,0.4h0.1 c1.5,0.5,3.1,0.8,4.7,1.2l3.7,0.9c2.4,0.6,5.5,2.2,6.7-1.3c0.33-0.76,0.46-1.58,0.4-2.4c-0.18-1.06-1.04-1.87-2.1-2 c-1.1-0.42-2.24-0.76-3.4-1c-0.3-0.1-0.5-0.1-0.8-0.2c-0.22,0-0.42-0.07-0.6-0.2c-0.3-0.3,0.2-0.6,0.4-0.7 c0.59-0.4,1.16-0.84,1.7-1.3c0.6-0.5,1.2-0.9,1.7-1.4c0.32-0.2,0.63-0.44,0.9-0.7c0.64-0.44,1.25-0.95,1.8-1.5 C121.5,13.2,125,11.4,123.6,9z" fill="#5F7AFF"/>
      </g>
    </g>
    <path id="mouth" d="M55.7,99.3c-3.83-0.07-6.88-3.24-6.81-7.07c0.02-1.29,0.41-2.55,1.11-3.63 c3.1-4.8,8-7.3,14-7.3s10.9,2.5,14,7.3c1.39,2.1,1.5,4.79,0.3,7c-1.19,2.22-3.48,3.64-6,3.7c-0.79,0.02-1.57-0.11-2.3-0.4 c-1.93-0.67-3.96-1.01-6-1c-2.04-0.02-4.07,0.32-6,1C57.26,99.17,56.48,99.31,55.7,99.3z" fill="#422B0D"/>
  </g>
</svg>

<svg viewBox="0 0 128 128" xmlns="http://www.w3.org/2000/svg">
  <defs>
    <radialGradient id="face_1_" cx="63.6" cy="62.8999" gradientUnits="userSpaceOnUse" r="56.9597">
      <stop offset="0.5" stop-color="#FDE030"/>
      <stop offset="0.92" stop-color="#F7C02B"/>
      <stop offset="1" stop-color="#F4A223"/>
    </radialGradient>
  </defs>
  <path id="face" d="M63.6,118.8 C35.7,118.8 5.6,101.3 5.6,62.9 C5.6,24.5 35.7,7 63.6,7 C79.1,7 93.4,12.1 104,21.4 C115.5,31.6 121.6,46 121.6,62.9 C121.6,79.8 115.5,94.1 104,104.3 C93.4,113.6 79,118.8 63.6,118.8 Z" fill="url(#face_1_)"/>
  <path d="M111.49,29.67 C116.82,38.27 119.6,48.51 119.6,59.9 C119.6,76.8 113.5,91.1 102,101.3 C91.4,110.6 77,115.8 61.6,115.8 C43.54,115.8 24.6,108.45 13.42,92.86 C24.18,110.52 44.42,118.8 63.6,118.8 C79,118.8 93.4,113.6 104,104.3 C115.5,94.1 121.6,79.8 121.6,62.9 C121.6,50.16 118.13,38.84 111.49,29.67 Z" fill="#EB8F00"/>
  <path d="M48.6,54.7 L48.4,54.9 L47.9,55.4 C47.7,55.6 47.5,55.7 47.2,56 C46.88,56.26 46.55,56.49 46.2,56.7 C45.8,56.9 45.4,57.2 45,57.4 C44.6,57.6 44.1,57.8 43.6,58 C43.11,58.18 42.61,58.31 42.1,58.4 C41.57,58.49 41.04,58.52 40.5,58.5 L39.6,58.5 C39.36,58.52 39.12,58.48 38.9,58.4 C38.39,58.31 37.89,58.18 37.4,58 C36.92,57.84 36.45,57.64 36,57.4 C35.6,57.2 35.2,56.9 34.8,56.7 C34.1,56.2 33.5,55.7 33.1,55.4 L32.5,54.8 L32.3,54.6 C31.01,53.44 29.08,53.36 27.7,54.4 C26.73,55.16 26.4,56.48 26.9,57.6 L27.1,57.9 C27.21,58.18 27.35,58.44 27.5,58.7 C28.11,59.73 28.85,60.67 29.7,61.5 C30.29,62.08 30.93,62.62 31.6,63.1 C32.39,63.65 33.22,64.12 34.1,64.5 C35.06,64.94 36.07,65.27 37.1,65.5 L38.8,65.8 C39.1,65.8 39.5,65.9 39.6,65.9 L40.4,65.9 C41.51,65.9 42.61,65.8 43.7,65.6 C44.74,65.39 45.74,65.05 46.7,64.6 C47.58,64.22 48.41,63.75 49.2,63.2 C49.9,62.75 50.54,62.21 51.1,61.6 C51.59,61.15 52.03,60.65 52.4,60.1 C52.6,59.9 52.7,59.6 52.9,59.4 C53.1,59.2 53.2,59 53.3,58.8 C53.47,58.56 53.61,58.29 53.7,58 L53.8,57.8 C54.42,56.4 53.78,54.75 52.38,54.13 C52.26,54.08 52.13,54.03 52,54 C50.83,53.49 49.47,53.77 48.6,54.7 Z" fill="#422B0D"/>
  <path d="M93.5,54.7 L93.3,54.9 L92.8,55.4 C92.6,55.6 92.4,55.7 92.1,56 C91.78,56.26 91.45,56.49 91.1,56.7 C90.7,56.9 90.3,57.2 89.9,57.4 C89.5,57.6 89,57.8 88.5,58 C88.01,58.18 87.51,58.31 87,58.4 C86.47,58.49 85.94,58.52 85.4,58.5 L84.5,58.5 C84.26,58.51 84.03,58.47 83.8,58.4 C83.29,58.31 82.79,58.18 82.3,58 C81.82,57.84 81.35,57.64 80.9,57.4 C80.5,57.2 80.1,56.9 79.7,56.7 C79,56.2 78.4,55.7 78,55.4 L77.4,54.8 L77.2,54.6 C75.91,53.44 73.98,53.36 72.6,54.4 C71.63,55.16 71.3,56.48 71.8,57.6 L72,57.9 C72.11,58.18 72.25,58.44 72.4,58.7 C73.01,59.73 73.75,60.67 74.6,61.5 C75.19,62.08 75.83,62.62 76.5,63.1 C77.29,63.65 78.12,64.12 79,64.5 C79.96,64.94 80.97,65.27 82,65.5 L83.7,65.8 C84,65.8 84.4,65.9 84.5,65.9 L85.3,65.9 C86.41,65.9 87.51,65.8 88.6,65.6 C89.64,65.39 90.64,65.05 91.6,64.6 C92.48,64.22 93.31,63.75 94.1,63.2 C94.82,62.77 95.46,62.23 96,61.6 C96.49,61.15 96.93,60.65 97.3,60.1 C97.5,59.9 97.6,59.6 97.8,59.4 C98,59.2 98.1,59 98.2,58.8 C98.37,58.56 98.51,58.29 98.6,58 L98.7,57.8 C99.32,56.4 98.68,54.75 97.28,54.13 C97.16,54.08 97.03,54.03 96.9,54 C95.73,53.49 94.37,53.77 93.5,54.7 Z" fill="#422B0D"/>
  <path d="M77.2,21.6 C76.86,21.41 76.49,21.27 76.1,21.2 C75.7,21 75.2,20.9 74.8,20.7 L72.7,20.1 C71.9,19.8 71,19.6 70.2,19.3 C68.6,18.8 66.6,17.5 65.6,19.8 C65.33,20.29 65.19,20.84 65.2,21.4 C65.2,22.2 65.8,22.6 66.5,22.9 C67.24,23.23 68.01,23.49 68.8,23.7 C69.05,23.83 69.32,23.89 69.6,23.9 C69.8,23.9 70,24 70,24.2 C70,24.4 69.8,24.4 69.7,24.5 C69.6,24.6 69.3,24.8 69.1,24.9 L68.8,25.1 C68.26,25.5 67.69,25.87 67.1,26.2 C66.7,26.5 66.2,26.8 65.8,27.1 C65.58,27.2 65.38,27.33 65.2,27.5 C64.61,27.9 64.04,28.34 63.5,28.8 L63.3,29 C62.76,29.43 62.37,30.03 62.2,30.7 C62.1,31.6 62.8,32 63.6,32.4 L64.5,32.7 L64.5,32.7 C65.55,33.09 66.62,33.43 67.7,33.7 C68.5,34 69.4,34.2 70.2,34.5 C71.8,35 73.8,36.3 74.8,34 C75.07,33.51 75.21,32.96 75.2,32.4 C75.1,31.69 74.59,31.1 73.9,30.9 C73.16,30.57 72.39,30.31 71.6,30.1 C71.4,30.1 71.3,30 71.1,29.9 C70.9,29.8 70.8,29.8 70.7,29.8 C70.5,29.6 70.9,29.4 71,29.3 C71.42,29.07 71.82,28.8 72.2,28.5 C72.62,28.23 73.02,27.93 73.4,27.6 C73.6,27.5 73.8,27.3 74,27.2 C74.4,26.9 74.9,26.6 75.3,26.3 C76.4,25.4 78.9,24.3 78.1,22.6 C77.89,22.2 77.58,21.85 77.2,21.6 Z" fill="#5F7AFF"/>
  <path d="M97.1,12.1 C96.72,11.92 96.31,11.79 95.9,11.7 C95.4,11.6 94.9,11.4 94.4,11.3 C93.6,11.1 92.8,11 92.1,10.8 C91.2,10.6 90.2,10.3 89.3,10.1 C87.5,9.7 85.2,8.5 84.3,11.1 C84.06,11.67 83.95,12.28 84,12.9 C84.1,13.8 84.8,14.2 85.6,14.4 C86.42,14.68 87.25,14.91 88.1,15.1 C88.4,15.2 88.7,15.2 89,15.3 C89.3,15.4 89.4,15.4 89.4,15.6 C89.4,15.8 89.2,15.9 89.1,16 C89,16.1 88.7,16.3 88.5,16.5 C88.3,16.7 88.3,16.6 88.2,16.7 C87.6,17.2 87,17.6 86.4,18.1 L85,19.2 C84.8,19.3 84.6,19.5 84.4,19.6 C83.8,20.1 83.2,20.6 82.7,21.1 C82.6,21.2 82.5,21.2 82.5,21.3 C81.89,21.8 81.5,22.52 81.4,23.3 C81.4,24.3 82.2,24.7 83.1,25.1 L84.1,25.4 L84.1,25.4 C85.25,25.76 86.42,26.06 87.6,26.3 C88.5,26.5 89.5,26.8 90.4,27 C92.2,27.4 94.5,28.6 95.4,26 C95.64,25.43 95.75,24.82 95.7,24.2 C95.6,23.3 94.9,22.9 94.1,22.7 C93.25,22.41 92.38,22.17 91.5,22 C91.3,22 91.1,21.9 90.9,21.9 C90.7,21.9 90.5,21.9 90.4,21.8 C90.3,21.7 90.6,21.4 90.7,21.3 C91.1,21 91.5,20.7 92,20.3 L93.3,19.3 C93.52,19.11 93.75,18.94 94,18.8 C94.49,18.46 94.95,18.09 95.4,17.7 C96.5,16.6 99.2,15.3 98.1,13.4 C97.97,12.84 97.6,12.37 97.1,12.1 Z" fill="#5F7AFF"/>
  <path d="M123.6,9 C123.22,8.36 122.67,7.83 122,7.5 C121.48,7.29 120.95,7.12 120.4,7 C119.75,6.79 119.08,6.62 118.4,6.5 C117.4,6.2 116.3,6 115.3,5.8 C114.1,5.5 112.8,5.1 111.6,4.8 C109.2,4.2 106.2,2.6 104.9,6.1 C104.57,6.86 104.44,7.68 104.5,8.5 C104.68,9.56 105.54,10.37 106.6,10.5 C107.72,10.86 108.85,11.16 110,11.4 C110.4,11.5 110.8,11.6 111.1,11.7 C111.4,11.8 111.7,11.8 111.7,12.1 C111.66,12.32 111.51,12.51 111.3,12.6 C111,12.8 110.8,13 110.5,13.2 C110.39,13.32 110.25,13.43 110.1,13.5 C109.3,14.1 108.5,14.7 107.8,15.3 L106,16.8 C105.75,17.02 105.48,17.22 105.2,17.4 C104.4,18 103.7,18.7 102.9,19.4 L102.6,19.7 C101.8,20.34 101.29,21.28 101.2,22.3 C101.2,23.6 102.3,24.2 103.5,24.7 C103.92,24.88 104.35,25.01 104.8,25.1 L104.9,25.1 C106.4,25.6 108,25.9 109.6,26.3 L113.3,27.2 C115.7,27.8 118.8,29.4 120,25.9 C120.33,25.14 120.46,24.32 120.4,23.5 C120.22,22.44 119.36,21.63 118.3,21.5 C117.2,21.08 116.06,20.74 114.9,20.5 C114.6,20.4 114.4,20.4 114.1,20.3 C113.88,20.3 113.68,20.23 113.5,20.1 C113.2,19.8 113.7,19.5 113.9,19.4 C114.49,19 115.06,18.56 115.6,18.1 C116.2,17.6 116.8,17.2 117.3,16.7 C117.62,16.5 117.93,16.26 118.2,16 C118.84,15.56 119.45,15.05 120,14.5 C121.5,13.2 125,11.4 123.6,9 Z" fill="#5F7AFF"/>
  <path id="mouth" d="M55.7,99.3 C51.87,99.23 48.82,96.06 48.89,92.23 C48.91,90.94 49.3,89.68 50,88.6 C53.1,83.8 58,81.3 64,81.3 C70,81.3 74.9,83.8 78,88.6 C79.39,90.7 79.5,93.39 78.3,95.6 C77.11,97.82 74.82,99.24 72.3,99.3 C71.51,99.32 70.73,99.19 70,98.9 C68.07,98.23 66.04,97.89 64,97.9 C61.96,97.88 59.93,98.22 58,98.9 C57.26,99.17 56.48,99.31 55.7,99.3 Z" fill="#422B0D"/>
</svg>
